X: 1409
T: Mânî Oluyor Halimi Takrîre...
C: Tatyos Efendi
O: Turkey
F: http://compmusic.upf.edu/node/140
N: hicazkar--sarki--kapali_curcuna--mani_oluyor--tatyos_efendi
N: makam= hicazkar
N: form= sarki
N: usul= kapali_curcuna = 10/8
M: 10/8
L: 1/16
K: C _1/4B _7/8e _7/8A ^f
Q: 1/4=210
%%MIDI tuningsystem comma53
g8-g2g2 f2e2 d2e2  | c18z2  | c2B2 c2d2 B2c2 d2e2 d2e2  | \
w:  ARANAĞME  |   |   | 
f2g2 a2a2 g2g2 f2g4z2  | 
w:   | 
=f14e2 d2e2  | g8-g2g2 f2e2 d2c2  | B2c2 e2d2 c2B2 A2A4G2  | \
w:   |   |   | 
G4 e2d2 c2B2 A2G4z2  | 
w:   | 
g8-g2g2 f2e2 d2e2  | c18z2  | c2B2 c2d2 B2c2 d2e2 d2e2  | \
w:  ARANAĞME  |   |   | 
f2g2 a2a2 g2g2 f2g4z2  | 
w:   | 
=f14e2 d2e2  | g8-g2g2 f2e2 d2c2  | B2c2 e2d2 c2B2 A2A4G2  | \
w:   |   |   | 
G4 e2d2 c2B2 A2G4z2  | 
w:   | 
f6g4g3fg6  | f4 g2a4g2 f2g4z2  | g4 b2b2 a2a2 g2g4f2  | \
w:  Mâ *  nî   |  o *  lu yor   |  ha *  li *  mi  *  tak  | 
f4 e2e2 d2d2 c2a4g2  | 
w:  rî *  re  *  hi *  câ  | 
g4 a2g2 f2e3dc4z2  | f6g4g3fg6  | f4 g2a4g2 f2g4z2  | \
w:  bım  SAZ  |  Mâ *  nî   |  o *  lu yor   | 
g4 b2b2 a2a2 g2g4f2  | 
w:  ha *  li *  mi  *  tak  | 
f4 e2e2 d2d2 c2a4g2  | g4 a2g2 f2e2 f2g4z2  | \
w:  rî *  re  *  hi *  câ  |  bım  SAZ  | 
g8-g2b4a4g2  | 
w:  Üz me   | 
g6f4g2 f2e2 d2c2  | d6e4e2 d2d4c2  | \
w:  ye ti şir   |  üz me  fi *  râ  | 
c6d4e2 d2c4B2  | e6e2 d2c3Bc4z2  | 
w:  kın la  ha *  râ  |  bım   | 
=f6g4g4f4e2  | a6a2 g2g2 f2e2 d2c2  | \
w:  Üz *  me   |  ye ti *  şir   | 
d6e4e2 d2c2 B2A2  | B6c4B2 A2A4G2  | 
w:  üz me  fi *  râ  |  kın la  ha *  râ  | 
G4 =a2g2 =f2_1/4e2 ^d2e6  | c6_1/4e4e3^de6  | \
w:  bım  SAZ  |  Mah *  vol  | 
=f6g4g2 f2_1/4e2 ^d2e2  | g6g4g2 f2_1/4e3^de2  | 
w:  du  sü kû  |  num  be ni  *  terk  | 
g6g4f2 g2=a4g2  | g4 c'2_b2 =a2g2 =f2_1/4e2 ^d2e2  | \
w:  ey le di  *  hâ  |  bım  SAZ  | 
c6_1/4e4e3^de6  | =f6g4g2 f2_1/4e2 ^d2e2  | 
w:  Mah *  vol  |  du  sü kû  | 
g6g4g2 f2_1/4e3^de2  | g6g4f2 g2a4g2  | \
w:  num  be ni  *  terk  |  ey le di  *  hâ  | 
g4 a2g2 f2e2 f2g4z2  | 
w:  bım  SAZ  | 
g8-g2b4a4g2  | g6f4g2 f2e2 d2c2  | d6e4e2 d2d4c2  | \
w:  Üz me   |  ye ti şir   |  üz me  fi *  râ  | 
c6d4e2 d2c4B2  | 
w:  kın la  ha *  râ  | 
e6e2 d2c3Bc4z2  | =f6g4g4f4e2  | a6a2 g2g2 f2e2 d2c2  | \
w:  bım   |  Üz *  me   |  ye ti *  şir   | 
d6e4e2 d2c2 B2A2  | 
w:  üz me  fi *  râ  | 
B6c4B2 A2A4G2  | G4 e2d2 c2B2 A2G4z2  | |


